X:1
T:Hosanna to King David’s Son
T:Hosanna to King David’s Son
T:Henry Stephen Cutler (1825–1902)
T:Based on Isaac Watts, 1709
T:Public Domain Courtesy of the Cyber Hymnal™
T:Public Domain Courtesy of the Cyber Hymnal™
C:Henry Stephen Cutler (1825–1902)
Z:Public Domain
Z:Courtesy of the Cyber Hymnal™
%%score ( 1 2 ) ( 3 4 )
L:1/8
Q:1/4=108
M:4/4
K:D
V:1 treble 
V:2 treble 
V:3 bass 
V:4 bass 
V:1
 D2 | F2 [EA]2 d2 B2 | B2 A2 [DA]2 (AG) | F2 (GA) B2 G2 | [DF]2 [CE]2 [CE]2 (EF) | %5
w: 1.~Ho-|san- na to King|Da- vid’s Son, Des- *|cend- ed * from the|heav’n- ly throne; In *|
w: 2.~Ho-|san- na to the|new- born Child, Of *|vir- gin * mo- ther,|meek and mild! In *|
w: 3.~Ho-|san- na to th’In-|car- nate Word, In *|Beth- l’hem * born! the|might- y God! Our *|
w: 4.~With|shep- herds on Ju-|de- a’s plains, With *|an- gels * in their|no- bler strains; Let *|
w: 5.~Let|ev- ery na- tion,|ev- ery voice, In *|mer- ry * Christ- mas|songs re- joice; Both *|
 [EG]2 [EG]2 [DF]2 (GA) | [GB]2 [GB]2 !fermata![FA]2 [Dd]2 | F2 B2 [FA]2 [DF]2 | [CE]3 D D2 || %9
w: Christ- mas songs we *|hail His birth, Who|brought sal- va- tion|to the earth.|
w: man- ger cra- dle *|see Him laid, By|whom the earth and|heav’ns were made.|
w: hearts and tongues with *|joy shall raise Their|glad ho- san- nas|to His praise!|
w: our ho- san- nas *|joy- ful rise To|join the an- thems|of the skies!|
w: old and young with *|glad- ness sing, That|Christ is born to|be our king!|
"^Refrain" [Dd]2 | c2 A2 G2 B2 | A2 F2 D2"^Chimes or Organ" d2 | c2 A2 G2 B2 | A2 F2 D2 [Dd]2 x2 | %14
w: Ho-|san- na to King|Da- vid’s Son, *||* * * Ho-|
w: Ho-|san- na to the|Won- der- ful! *||* * * Ho-|
w: Ho-|san- na to the|might- y God! *||* * * Ho-|
w: Ho-|san- na, ev- er-|last- ing Father! *||* * * Ho-|
w: Ho-|san- na to the|Prince of Peace! *||* * * Ho-|
 c2 A2 G2 B2 | A2 F2 D2 D2 | [DF]2 [EA]2 [GB]2 [Gc]2 | [Fd]2 [Fd]2 z2"^Chimes or Organ" d2 | %18
w: san- na to King|Da- vid’s Son, *|||
w: san- na to the|Won- der- ful! *|||
w: san- na to the|might- y God! Ho-|san- na in the|high- est. *|
w: san- na, ev- er-|last- ing Father! *|||
w: san- na to the|Prince of Peace! *|||
 c2 A2 G2 B2 | A2 G2 D2 D2 | F2 A2 B2 c2 | d2 d2 z2 |] %22
w: ||||
w: ||||
w: ||||
w: ||||
w: ||||
V:2
 D2 | F2 D4 x2 | D4 E2 x2 | D4 D4 | x6 E2 | x6 G2 | x8 | D4 x4 | x6 || x2 | E4 D4 | D4 D2 x2 | x8 | %13
 x10 | E4 D4 | D4 D2 x2 | x8 | x8 | x8 | x8 | x8 | x6 |] %22
V:3
 D,2 | D2 C2 B,2 G,2 | G,2 F,2 [D,F,]2 [C,A,]2 | [D,A,]2 [B,,G,]2 G,4 | [A,,A,]4 [A,,A,]2 z2 | %5
 (E,F,) (G,A,) B,2 z2 | (G,A,) (B,C) !fermata!D2 B,2 | A,2 ^G,2 A,2 [A,,A,]2 | %8
 [A,,=G,]3 [D,F,] [D,F,]2 || [D,-F,]2 | A,2 C2 B,2 G,2 | [D,F,]6 z2 | z8 | z6 F,2 x2 | %14
 A,2 C2 B,2 G,2 | [D,F,]6 D,2 | D2 C2 B,2 [D,_B,]2 | [D,A,]2 [D,A,]2 z4 | z8 | z8 | z8 | z6 |] %22
V:4
 D,2 | D,4 D,4 | D,4 x4 | x4 G,,2 B,,2 | x8 | x8 | x8 | x8 | x6 || x2 | D,8 | x8 | x8 | x6 D,4- | %14
 D,8 | x8 | D,6 x2 | x8 | x8 | x8 | x8 | x6 |] %22

